packages/dnb-ui-lib/assets/icons/add.svg

<svg width="16" height="16" viewBox="0 0 16 16" fill="none" xmlns="http://www.w3.org/2000/svg">
<path fill-rule="evenodd" clip-rule="evenodd" d="M8.75 1.75C8.75 1.33579 8.41421 1 8 1C7.58579 1 7.25 1.33579 7.25 1.75V7.25H1.75C1.33579 7.25 1 7.58579 1 8C1 8.41421 1.33579 8.75 1.75 8.75H7.25V14.25C7.25 14.6642 7.58579 15 8 15C8.41421 15 8.75 14.6642 8.75 14.25V8.75H14.25C14.6642 8.75 15 8.41421 15 8C15 7.58579 14.6642 7.25 14.25 7.25H8.75V1.75Z" fill="black"/>
</svg>

<svg width="16" height="16" viewBox="0 0 16 16" fill="none" xmlns="http://www.w3.org/2000/svg"><path fill-rule="evenodd" clip-rule="evenodd" d="M8.75 1.75a.75.75 0 00-1.5 0v5.5h-5.5a.75.75 0 000 1.5h5.5v5.5a.75.75 0 001.5 0v-5.5h5.5a.75.75 0 000-1.5h-5.5v-5.5z" fill="#000"/></svg>
